img/envelope.svg

<svg width="16" height="11" viewBox="0 0 16 11" fill="none" xmlns="http://www.w3.org/2000/svg">
<path d="M14.5 0H1.50001C0.672854 0 0 0.608544 0 1.35664V9.49644C0 10.2445 0.672854 10.8531 1.50001 10.8531H14.5C15.3271 10.8531 16 10.2445 16 9.49644V1.35664C16 0.608544 15.3271 0 14.5 0V0ZM14.5 0.904418C14.5679 0.904418 14.6325 0.917165 14.6916 0.939428L8 6.18479L1.30833 0.939428C1.36742 0.917196 1.43204 0.904418 1.49998 0.904418H14.5ZM14.5 9.94863H1.50001C1.22414 9.94863 0.999996 9.74594 0.999996 9.49641V1.89496L7.67236 7.12497C7.76661 7.1987 7.8833 7.23538 8 7.23538C8.1167 7.23538 8.23339 7.19874 8.32764 7.12497L15 1.89496V9.49644C15 9.74594 14.7759 9.94863 14.5 9.94863V9.94863Z" fill="#757575"/>
</svg>

<svg width="16" height="11" fill="none" xmlns="http://www.w3.org/2000/svg"><path d="M14.5 0h-13C.673 0 0 .609 0 1.357v8.14c0 .748.673 1.356 1.5 1.356h13c.827 0 1.5-.608 1.5-1.357v-8.14C16 .61 15.327 0 14.5 0zm0 .904c.068 0 .133.013.192.035L8 6.185 1.308.939A.544.544 0 011.5.904h13zm0 9.045h-13c-.276 0-.5-.203-.5-.453V1.895l6.672 5.23c.095.074.211.11.328.11a.531.531 0 00.328-.11L15 1.895v7.601c0 .25-.224.453-.5.453z" fill="#757575"/></svg>
